images/icons/form-submission-failed.svg

<?xml version="1.0" encoding="UTF-8"?>
<svg width="44px" height="44px" viewBox="0 0 44 44" version="1.1" xmlns="http://www.w3.org/2000/svg" xmlns:xlink="http://www.w3.org/1999/xlink">
    <!-- Generator: Sketch 51 (57462) - http://www.bohemiancoding.com/sketch -->
    <title>Group</title>
    <desc>Created with Sketch.</desc>
    <defs>
        <path d="M23.2479626,20.5 L29.4308783,26.6829158 C30.1897072,27.4417447 30.1897072,28.6720494 29.4308783,29.4308783 C28.6720494,30.1897072 27.4417447,30.1897072 26.6829158,29.4308783 L20.5,23.2479626 L14.3170842,29.4308783 C13.5582553,30.1897072 12.3279506,30.1897072 11.5691217,29.4308783 C10.8102928,28.6720494 10.8102928,27.4417447 11.5691217,26.6829158 L17.7520374,20.5 L11.5691217,14.3170842 C10.8102928,13.5582553 10.8102928,12.3279506 11.5691217,11.5691217 C12.3279506,10.8102928 13.5582553,10.8102928 14.3170842,11.5691217 L20.5,17.7520374 L26.6829158,11.5691217 C27.4417447,10.8102928 28.6720494,10.8102928 29.4308783,11.5691217 C30.1897072,12.3279506 30.1897072,13.5582553 29.4308783,14.3170842 L23.2479626,20.5 Z" id="path-1"></path>
        <filter x="-36.8%" y="-26.3%" width="173.7%" height="173.7%" filterUnits="objectBoundingBox" id="filter-2">
            <feOffset dx="0" dy="2" in="SourceAlpha" result="shadowOffsetOuter1"></feOffset>
            <feMorphology radius="4" operator="erode" in="SourceAlpha" result="shadowInner"></feMorphology>
            <feOffset dx="0" dy="2" in="shadowInner" result="shadowInner"></feOffset>
            <feComposite in="shadowOffsetOuter1" in2="shadowInner" operator="out" result="shadowOffsetOuter1"></feComposite>
            <feGaussianBlur stdDeviation="2" in="shadowOffsetOuter1" result="shadowBlurOuter1"></feGaussianBlur>
            <feColorMatrix values="0 0 0 0 0.456499787   0 0 0 0 0.377822741   0 0 0 0 0.377822741  0 0 0 0.498556386 0" type="matrix" in="shadowBlurOuter1"></feColorMatrix>
        </filter>
    </defs>
    <g id="Desktop" stroke="none" stroke-width="1" fill="none" fill-rule="evenodd">
        <g id="Contact-Form---Result" transform="translate(-810.000000, -218.000000)" fill-rule="nonzero">
            <g id="failed-state" transform="translate(672.000000, 220.000000)">
                <g id="Group" transform="translate(140.000000, 0.000000)">
                    <circle id="Oval" stroke="#E888A8" stroke-width="4" cx="20" cy="20" r="20"></circle>
                    <g id="Combined-Shape">
                        <use fill="black" fill-opacity="1" filter="url(#filter-2)" xlink:href="#path-1"></use>
                        <path stroke="#E183A1" stroke-width="4" d="M20.5804646,20.5 L12.9833352,12.9028707 C13.0055549,12.9250904 13.0055549,12.9611156 12.9833352,12.9833352 C12.9611156,13.0055549 12.9250904,13.0055549 12.9028707,12.9833352 L28.0166648,28.0971293 C27.9944451,28.0749096 27.9944451,28.0388844 28.0166648,28.0166648 C28.0388844,27.9944451 28.0749096,27.9944451 28.0971293,28.0166648 L20.5804646,20.5 L28.0971293,12.9833352 C28.0749096,13.0055549 28.0388844,13.0055549 28.0166648,12.9833352 C27.9944451,12.9611156 27.9944451,12.9250904 28.0166648,12.9028707 L12.9028707,28.0166648 C12.9250904,27.9944451 12.9611156,27.9944451 12.9833352,28.0166648 C13.0055549,28.0388844 13.0055549,28.0749096 12.9833352,28.0971293 L20.5804646,20.5 Z" stroke-linejoin="square"></path>
                    </g>
                </g>
            </g>
        </g>
    </g>
</svg>

<svg width="44" height="44" xmlns="http://www.w3.org/2000/svg" xmlns:xlink="http://www.w3.org/1999/xlink"><defs><path d="M23.248 20.5l6.183 6.183a1.943 1.943 0 1 1-2.748 2.748L20.5 23.248l-6.183 6.183a1.943 1.943 0 1 1-2.748-2.748l6.183-6.183-6.183-6.183a1.943 1.943 0 1 1 2.748-2.748l6.183 6.183 6.183-6.183a1.943 1.943 0 1 1 2.748 2.748L23.248 20.5z" id="b"/><filter x="-36.8%" y="-26.3%" width="173.7%" height="173.7%" filterUnits="objectBoundingBox" id="a"><feOffset dy="2" in="SourceAlpha" result="shadowOffsetOuter1"/><feMorphology radius="4" in="SourceAlpha" result="shadowInner"/><feOffset dy="2" in="shadowInner" result="shadowInner"/><feComposite in="shadowOffsetOuter1" in2="shadowInner" operator="out" result="shadowOffsetOuter1"/><feGaussianBlur stdDeviation="2" in="shadowOffsetOuter1" result="shadowBlurOuter1"/><feColorMatrix values="0 0 0 0 0.456499787 0 0 0 0 0.377822741 0 0 0 0 0.377822741 0 0 0 0.498556386 0" in="shadowBlurOuter1"/></filter></defs><g transform="translate(2 2)" fill-rule="nonzero" fill="none"><circle stroke="#E888A8" stroke-width="4" cx="20" cy="20" r="20"/><use fill="#000" filter="url(#a)" xlink:href="#b"/><path stroke="#E183A1" stroke-width="4" d="M20.58 20.5l-7.597-7.597a.057.057 0 1 1-.08.08l15.114 15.114a.057.057 0 1 1 .08-.08L20.58 20.5l7.517-7.517a.057.057 0 1 1-.08-.08L12.903 28.017a.057.057 0 1 1 .08.08L20.58 20.5z" stroke-linejoin="square"/></g></svg>
